src/assets/img/product-card-wash.svg

<svg width="20" height="20" viewBox="0 0 20 20" fill="none" xmlns="http://www.w3.org/2000/svg">
<path d="M19.6652 4.5929C19.4373 4.54188 19.2196 4.70013 19.1749 4.94005L18.6359 7.80289C18.3756 7.68046 18.1776 7.47031 17.9468 7.21843C17.6343 6.8773 17.2573 6.47418 16.6465 6.31879C16.5956 5.3545 16.2064 4.45216 15.5111 3.76443L14.1219 2.39107C13.3382 1.61709 12.253 1.1992 11.1507 1.25494L6.16827 1.48932C5.97745 1.49826 5.8171 1.6358 5.77928 1.82303C5.67511 2.33775 5.78499 2.85783 6.08893 3.2879C6.39249 3.71677 6.86651 4.00571 7.39022 4.07978L8.43392 4.22708C8.61295 4.25231 8.75334 4.36786 8.80908 4.53673C8.83513 4.61567 8.87662 4.81872 8.69716 4.99618L6.08921 7.57464C5.96897 7.46925 5.85225 7.35226 5.72925 7.2184C5.33335 6.78707 4.84058 6.24996 3.8925 6.24996C2.94441 6.24996 2.45168 6.78707 2.05574 7.2184C1.82453 7.47046 1.6259 7.68124 1.3643 7.80363L0.825242 4.94001C0.780476 4.70052 0.562782 4.5427 0.334931 4.59286C0.109502 4.64083 -0.0369814 4.87387 0.00817468 5.1138L2.30715 17.3263C2.46219 18.1512 3.14945 18.7499 3.94125 18.7499H16.0587C16.8505 18.7499 17.5378 18.1512 17.6928 17.3263L19.9918 5.1138C20.0371 4.87391 19.8906 4.64087 19.6652 4.5929ZM9.28314 5.58864C9.63267 5.24317 9.75435 4.73981 9.60013 4.2747C9.44509 3.80591 9.04267 3.47142 8.55033 3.40185L7.50705 3.25455C7.20514 3.21181 6.9435 3.05271 6.76975 2.80689C6.66233 2.6547 6.59803 2.48299 6.58014 2.30435L11.1899 2.08748C12.057 2.04557 12.918 2.37271 13.5361 2.98353L14.9253 4.35688C15.4496 4.87536 15.7487 5.54957 15.8085 6.27176C15.0571 6.37273 14.6292 6.83617 14.2791 7.2184C13.9218 7.60863 13.6394 7.91663 13.0596 7.91663C12.4798 7.91663 12.1974 7.60863 11.8401 7.2184C11.445 6.78707 10.9531 6.24996 10.0062 6.24996C9.05935 6.24996 8.56744 6.78707 8.17193 7.2184C7.81467 7.60863 7.53229 7.91663 6.95205 7.91663C6.94432 7.91663 6.93909 7.91382 6.93147 7.91374L9.28314 5.58864ZM11.1549 10.5409C10.9934 10.3769 10.7297 10.3753 10.5657 10.5376L7.4517 13.6164C7.26983 13.7966 6.97319 13.7958 6.79213 13.6164C6.70545 13.5309 6.65784 13.4174 6.65784 13.2974C6.65784 13.1797 6.70299 13.069 6.78561 12.984L9.90611 9.89874C10.0697 9.73721 10.0713 9.47311 9.90935 9.30956C9.74782 9.14557 9.48415 9.14393 9.32017 9.30632L6.20616 12.3851C6.20249 12.3887 6.19881 12.3924 6.19518 12.396L5.58362 13.0007C5.40175 13.1801 5.10511 13.1801 4.92405 13.0007C4.83737 12.9148 4.78937 12.8013 4.78976 12.6808C4.78976 12.5608 4.83737 12.4477 4.92405 12.3618L8.03763 9.28307C8.20123 9.12155 8.20283 8.85741 8.04088 8.69382C7.97115 8.623 7.88154 8.58855 7.78998 8.57843C8.22803 8.3853 8.52892 8.06234 8.7863 7.78156C9.14357 7.39132 9.42595 7.08332 10.0062 7.08332C10.586 7.08332 10.8684 7.39132 11.2257 7.78156C11.6208 8.21288 12.1127 8.74999 13.0596 8.74999C14.0064 8.74999 14.4984 8.21288 14.8935 7.78156C15.1717 7.47769 15.4091 7.22883 15.7723 7.13133C15.6534 7.71804 15.363 8.25761 14.9252 8.69058L9.9431 13.6163C9.76161 13.7962 9.46458 13.7962 9.2831 13.6163C9.19642 13.5309 9.1488 13.4174 9.1488 13.2973C9.1488 13.1768 9.19642 13.0633 9.2831 12.9774L11.1516 11.13C11.3152 10.9685 11.3168 10.7044 11.1549 10.5409ZM6.21788 8.61929C6.42956 8.69819 6.6685 8.74999 6.95201 8.74999C7.13807 8.74999 7.30217 8.72452 7.4558 8.68788C7.45459 8.68905 7.45291 8.68937 7.4517 8.69058L4.96066 11.1532C4.77796 11.3335 4.48214 11.3327 4.30109 11.1532C4.21441 11.0678 4.16679 10.9542 4.16679 10.8342C4.16679 10.7138 4.21441 10.6002 4.30109 10.5144L6.21788 8.61929ZM16.8759 17.1526C16.7981 17.565 16.4548 17.9166 16.0588 17.9166H3.94136C3.54547 17.9166 3.20203 17.565 3.1243 17.1526L1.51981 8.62909C2.03516 8.45226 2.37375 8.10476 2.66981 7.78199C3.02789 7.39175 3.31066 7.08336 3.89253 7.08336C4.47441 7.08336 4.75718 7.39179 5.11569 7.78199C5.22972 7.90624 5.3539 8.03827 5.49253 8.16468L3.71515 9.92194C3.46898 10.1653 3.33347 10.4896 3.33347 10.8342C3.33386 11.1789 3.46937 11.5028 3.71515 11.7458C3.83968 11.869 3.98371 11.9618 4.1371 12.0245C4.0191 12.2206 3.95644 12.4461 3.95644 12.6808C3.95605 13.0255 4.09195 13.3498 4.33812 13.5931C4.76616 14.0175 5.42249 14.0814 5.92096 13.7856C5.98565 13.9422 6.08171 14.0859 6.2062 14.2088C6.45889 14.4586 6.79049 14.5832 7.12213 14.5832C7.45377 14.5832 7.78537 14.4586 8.03767 14.2088L8.42791 13.823C8.4922 13.965 8.58295 14.0956 8.69728 14.2088C9.20267 14.7085 10.0238 14.7077 10.5291 14.2088L15.5112 9.28304C16.0952 8.70538 16.4649 7.97659 16.6013 7.18726C16.883 7.3075 17.0945 7.52152 17.3325 7.78156C17.6283 8.10406 17.9661 8.45179 18.4806 8.62878L16.8759 17.1526Z" fill="#787A80"/>
</svg>

<svg width="20" height="20" fill="none" xmlns="http://www.w3.org/2000/svg"><path d="M19.665 4.593c-.228-.051-.445.107-.49.347l-.54 2.863c-.26-.123-.457-.333-.688-.585-.313-.34-.69-.744-1.3-.9a3.846 3.846 0 0 0-1.136-2.554l-1.39-1.373a3.962 3.962 0 0 0-2.97-1.136l-4.983.234a.417.417 0 0 0-.389.334 1.871 1.871 0 0 0 .31 1.465 1.93 1.93 0 0 0 1.301.792l1.044.147c.179.025.32.14.375.31a.437.437 0 0 1-.112.46L6.09 7.574a4.672 4.672 0 0 1-.36-.357c-.396-.43-.888-.968-1.837-.968-.948 0-1.44.537-1.836.968-.231.252-.43.463-.692.586L.825 4.94C.78 4.7.563 4.543.335 4.593a.443.443 0 0 0-.327.52l2.3 12.213c.154.825.841 1.424 1.633 1.424H16.06c.791 0 1.479-.599 1.634-1.424l2.299-12.212a.442.442 0 0 0-.327-.521Zm-10.382.996a1.287 1.287 0 0 0-.733-2.187l-1.043-.147a1.078 1.078 0 0 1-.927-.95l4.61-.218a3.14 3.14 0 0 1 2.346.897l1.39 1.373c.524.518.823 1.193.883 1.915-.752.1-1.18.564-1.53.946-.357.39-.64.699-1.22.699s-.862-.308-1.219-.699c-.395-.43-.887-.968-1.834-.968-.947 0-1.439.537-1.834.968-.357.39-.64.699-1.22.699-.008 0-.013-.003-.02-.003l2.351-2.325Zm1.872 4.952a.416.416 0 0 0-.59-.003l-3.113 3.078a.47.47 0 0 1-.66 0 .446.446 0 0 1-.006-.632l3.12-3.085a.416.416 0 1 0-.586-.593l-3.114 3.08-.01.01-.612.605a.471.471 0 0 1-.66 0 .446.446 0 0 1 0-.64l3.114-3.078a.417.417 0 0 0 .003-.59.408.408 0 0 0-.251-.115c.438-.193.739-.516.996-.796.358-.39.64-.699 1.22-.699s.862.308 1.22.699c.395.43.887.968 1.834.968.946 0 1.438-.537 1.833-.968.279-.304.516-.553.88-.65a3.034 3.034 0 0 1-.848 1.559l-4.982 4.925a.471.471 0 0 1-.66 0 .445.445 0 0 1 0-.639l1.869-1.847a.416.416 0 0 0 .003-.59ZM6.218 8.619c.212.08.45.131.734.131.186 0 .35-.025.504-.062l-.004.003-2.491 2.462a.47.47 0 0 1-.66 0 .445.445 0 0 1 0-.639L6.218 8.62Zm10.658 8.534c-.078.412-.421.764-.817.764H3.94c-.396 0-.739-.352-.817-.764L1.52 8.629c.515-.177.854-.524 1.15-.847.358-.39.64-.699 1.223-.699.581 0 .864.309 1.223.699.114.124.238.256.377.383L3.715 9.922a1.275 1.275 0 0 0-.382.912c0 .345.136.669.382.912.125.123.269.216.422.278-.118.197-.18.422-.18.657-.001.345.135.669.381.912a1.307 1.307 0 0 0 1.583.193 1.299 1.299 0 0 0 1.201.798c.332 0 .663-.125.916-.375l.39-.386a1.307 1.307 0 0 0 2.101.386l4.982-4.926a3.852 3.852 0 0 0 1.09-2.096c.282.12.494.335.732.595.295.322.633.67 1.148.847l-1.605 8.524Z" fill="#787A80"/></svg>
